X:1
T:Agnus Dei
T:Messe en Si mineur - BWV 232
%%score 1 2 3
L:1/8
Q:1/4=120
M:4/4
K:Bb
V:1 treble+8 nm="Blockflöte" snm="Bfl."
V:2 treble+8 nm="Blockflöte" snm="Bfl."
V:3 treble+8 nm="Blockflöte" snm="Bfl."
V:1
 z8 | z8 | z8 | z8 | z8 | z8 | z8 | z8 |[K:treble+8] d'c' ab b4- | ba ^f g g4- | gf d e e4- | %11
w: ||||||||A- * gnus * De-|* * i qui tol-|* * lis pec- ca-|
 e d (d4 c2) | d2 z d (b/g/ c2) b | (a/^f/) c' z d (b/g/) _a2 g | (^f=e) d ab ^f g2- | %15
w: * ta mun- *|di, qui tol- * lis pec-|ca- * ta, pec- ca- * * ta|mun- * di, mi- * se- re-|
 g3 a/b/ a/f/ =e/d/ (fe) | d Ad f =Bd g2- | g=e d^c (db) (^fg) | g3 ^f/=e/ (f/a/ c'2) b/a/ | %19
w: * * * * * re * no- *|bis, mi- * se- re- * *|* * re _ no- * bis, *|mi- se- * re- * * re _|
 d'c' b a b3 a/g/ | (f=e) d a (^g/=b/ d2) _d/=B/ | ^c/=e/ g z f/ e/ f a (fe/d/) | d2 z2 z4 | z8 | %24
w: no- * bis, qui tol- lis pec-|ca- * ta, pec- ca- * * ta *|mun- * di, mi- se- re- re no- * *|bis.||
 z8 | z8 | (ag) (=ef) f4- | f_a g f =e^fg=a | ba ^f g g4- | gb ag ^f=e d2 | d'c' ab b4- | %31
w: ||A- * gnus * De-|* * i qui tol- * * *|* * lis pec- ca-|* * ta * mun- * di,|a- * gnus * De-|
 ba_g=g g4- | gfde e4- | e !fermata!d z d (b/g/) c2 b | (a/^f/) c' z d (b/g/ _a2) g | %35
w: * * i qui tol-|* * lis pec- ca-|* ta qui tol- * lis pec-|ca- * ta, pec- ca- * * ta|
 _g=e d c (=B/d/ f2) _e/ d/ | e/d/ c z2 z _a2 g/f/ | ed c B (A/=e/ g2) f/e/ | %38
w: mun- * di, qui tol- * * lis pec-|ca- * ta, mi- se- *|re- * re, qui tol- * * lis pec-|
 f/=e/ d z B2 d ^c/e/ a/g/ | ^f=e d (ef) a d2- | de (^fg) (ge) (=Bc) | %41
w: ca- * ta, mi- se- re- * re _|no- * bis, mi- * se- re-|* * re * no- * bis, *|
 c c2 (B/A/) (d/B/) (A/G/) (BA) | G _A2 (g/f/) (e=Bc) g | ^f/g/ a z E/ D/{c} B A/G/ (^F>G) | %44
w: mi- * se- * re- * re * no- *|bis, mi- se- * re- * * re|no- * bis, mi- se- re- re * no- *|
 G2 z2 z4 | z8 | z8 | z8 | z8 |] %49
w: bis.|||||
V:2
 z2 z d (b/g/ c2) (g/b/) | (a/^f/ c'2) (b/a/) (b/g/ _a2) g | (^f=ed)(a b)(fg)(d | %3
 ^c)(ba)(^c' d')a Tf=e/d/ | d2 z c (=B/d/) f2 (e/d/) | (e/c/) A2 g (^f/a/) c'2 (b/a/) | %6
 (b/g/ ^c2) d (=e/g/ b2) (a/g/) | (^f/a/ e2) (d/c/) BA/G/ df | g2 z2!p! g=fde | e4- ed(=Bc) | %10
 c4- c_B(GA) | A2 z c' (bg)(^fg) | ^f2 z2 z2 (b/g/c) | z2 (a/^f/c') z2 (e/c/A) | z4 z2 z (d | %15
 ^c)(ba)(^c' d') z z2 | z2 z!mp! A (f/d/ G2) (d/f/) | (=e/^c/ g2) (f/e/) (f/d/ _e2) d | %18
 ^c=BA z z (g^f)(c' | b)(ag)d (^c/=e/) g2 f/e/ | (f/d/^g) z2 z (A^G)(f | =e)(BA) z z4 | %22
 z2 z A (f/d/ G2) (d/f/) | (=e/^c/ g2) (f/e/) (f/d/ _e2) d | (^c=B)A(=e f)(cd)(c' | %25
 b)(^fg)(^c' d')a =f=e/d/ | d2 z2!p! (d'c')(a=b) | =b2 _b2- ba=e^f | g z z2 (g_e)(^cd) | %29
 ^c4 d2 z2 | z4 (gf)(de) | ^d4- d=d=Bc | c4- c_BGA | !fermata!A2 z2 z2 (b/g/c) | %34
 z2 (a/^f/c') z2 (e/c/A) | z4 z (c=B)(_a | g)(fe)c (=B/d/ f2) e/d/ | g(=Bc) z z (f=e)(_b | %38
 a)(gf)d (^c/=e/ g2) (f/e/) | a(^cd)=c'- (c'/a/ d2) (g/b/) | (a/^f/ c2) (b/a/) (b/g/ _a2) g | %41
 (^f=ed) z z4 | z (_ed)(=b c') z z2 | z (ed)(^f g) z z2 | z2 z c (=B/d/ f2) (e/d/) | %45
 (e/c/ A2) g (^f/a/ c'2) (b/a/) | (b/g/ ^c'2) d' (=e/g/ b2) (a/g/) | (^f/a/ e2) (d/c/) Bd'df | %48
 G2 z2 z4 |] %49
V:3
 g z ^f z g z =e z | ^f z d z g z c z | d z ^f z g z b z | a z g z fdaA | (d=ef_a) g z =B z | %5
 c z e z d z ^f z | g z b z ^c z A z | d z ^f z GBdD | G z ^F z!p! G z G z | c z A z =B z f z | %10
 e z ^F z G z c z | ^F z ^f z g z e z | (dcB)^F G z e z | ^F z D z G z c z | d z ^f z g z b z | %15
 a z z =e fgaA | d z f z g z b z | ^c z A z d z B z | A z ^c z d z D z | d z f z =e z ^c z | %20
 d z =B z =e z =E z | A z ^c z dfaA | d z ^c z d z =B z | ^c z A z d z G z | A z ^c z d z f z | %25
 g z =e z fdaA | d!p! z ^c z d z D z | G z g z cc'ba | g z a z b z =e z | a z A z dcBA | %30
 G z ^F z G z g z | c z A z =B z f z | e z ^F z G z c z | !fermata!^F2 z ^f g z =e z | %34
 ^f z d z g z c z | d z ^f z g z G z | g z _a z d z g z | (cded) (^c=Bc)c | d(BA^G) A z A z | %39
 d=e^fg agfe | ^f z d z g z e z | d z ^f z Becd | ed/c/=BG c z e z | dcBA GcdD | Ggfe dc=BG | %45
 cdec d=e^fd | GABG ^cd=ec | da^fd gB/c/dD | G2 z2 z4 |] %49

